X:37
T:Galloping Clark. Ru2.037, The
%%VWML:RutherfordVol2-2249-p19-0
F:http://www.vwml.org/record/RutherfordVol2/2249/p19
B:RUTHERFORD Complete Collection of 200 Country Dances Vol.2; 1759.
Z:vmp.Mike Hicken 2015 www.village-music-project.org.uk
M:C|
Q:1/4=140
K:A
e/d/|cAec dgaf|eacA dBBd|cAdB ecfg|afed cAA :|
|: a|f/g/a ec Ace=g|f/g/a ec dBBg|aefd ecdB|caed cAA :|
W:
W: First Cu: cast off one Cu: & turn .|  cast up a-
W: gain & turn :|  cross over one Cu: & turn .|.  right
W: & left at top :|
T:Whistling Billy. Ru2.038
L:1/8
B:RUTHERFORD Complete Collection of 200 Country Dances Vol.2; 1759.
Z:vmp.Mike Hicken 2015 www.village-music-project.org.uk
M:6/8
Q:3/8=110
K:Bb
BcB fdB|gec fdB|BcB fdB|FAc ecA|
BcB fdB|gab fbe|dcB cBA|BFD B,3 :|
|: fgf fdB|gab f3|gec fdB|AcB AGF|
fdB gec|fga bag|fdB Fed|cBA B3 :|
W:
W: First & 2d Cu: foot it & right & left half round .|
W: the same Back again :|  cross over two Cu: .|.  lead
W: to the top foot it & cast off :|
